public/item-blur.svg

<svg width="24" height="24" viewBox="0 0 24 24" fill="none" xmlns="http://www.w3.org/2000/svg">
<path fill-rule="evenodd" clip-rule="evenodd" d="M15.125 0.75C15.125 1.1 14.85 1.375 14.5 1.375C14.15 1.375 13.875 1.1 13.875 0.75C13.875 0.4 14.15 0.125 14.5 0.125C14.85 0.125 15.125 0.4 15.125 0.75ZM4.5 3.25C3.8125 3.25 3.25 3.8125 3.25 4.5C3.25 5.1875 3.8125 5.75 4.5 5.75C5.1875 5.75 5.75 5.1875 5.75 4.5C5.75 3.8125 5.1875 3.25 4.5 3.25ZM4.5 8.25C3.8125 8.25 3.25 8.8125 3.25 9.5C3.25 10.1875 3.8125 10.75 4.5 10.75C5.1875 10.75 5.75 10.1875 5.75 9.5C5.75 8.8125 5.1875 8.25 4.5 8.25ZM3.25 14.5C3.25 13.8125 3.8125 13.25 4.5 13.25C5.1875 13.25 5.75 13.8125 5.75 14.5C5.75 15.1875 5.1875 15.75 4.5 15.75C3.8125 15.75 3.25 15.1875 3.25 14.5ZM3.25 19.5C3.25 18.8125 3.8125 18.25 4.5 18.25C5.1875 18.25 5.75 18.8125 5.75 19.5C5.75 20.1875 5.1875 20.75 4.5 20.75C3.8125 20.75 3.25 20.1875 3.25 19.5ZM0.125 9.5C0.125 9.15 0.4 8.875 0.75 8.875C1.1 8.875 1.375 9.15 1.375 9.5C1.375 9.85 1.1 10.125 0.75 10.125C0.4 10.125 0.125 9.85 0.125 9.5ZM23.875 9.5C23.875 9.85 23.6 10.125 23.25 10.125C22.9 10.125 22.625 9.85 22.625 9.5C22.625 9.15 22.9 8.875 23.25 8.875C23.6 8.875 23.875 9.15 23.875 9.5ZM14.5 5.75C15.1875 5.75 15.75 5.1875 15.75 4.5C15.75 3.8125 15.1875 3.25 14.5 3.25C13.8125 3.25 13.25 3.8125 13.25 4.5C13.25 5.1875 13.8125 5.75 14.5 5.75ZM0.75 13.875C0.4 13.875 0.125 14.15 0.125 14.5C0.125 14.85 0.4 15.125 0.75 15.125C1.1 15.125 1.375 14.85 1.375 14.5C1.375 14.15 1.1 13.875 0.75 13.875ZM8.875 23.25C8.875 22.9 9.15 22.625 9.5 22.625C9.85 22.625 10.125 22.9 10.125 23.25C10.125 23.6 9.85 23.875 9.5 23.875C9.15 23.875 8.875 23.6 8.875 23.25ZM9.5 1.375C9.85 1.375 10.125 1.1 10.125 0.75C10.125 0.4 9.85 0.125 9.5 0.125C9.15 0.125 8.875 0.4 8.875 0.75C8.875 1.1 9.15 1.375 9.5 1.375ZM10.75 4.5C10.75 5.1875 10.1875 5.75 9.5 5.75C8.8125 5.75 8.25 5.1875 8.25 4.5C8.25 3.8125 8.8125 3.25 9.5 3.25C10.1875 3.25 10.75 3.8125 10.75 4.5ZM9.5 12.625C8.4625 12.625 7.625 13.4625 7.625 14.5C7.625 15.5375 8.4625 16.375 9.5 16.375C10.5375 16.375 11.375 15.5375 11.375 14.5C11.375 13.4625 10.5375 12.625 9.5 12.625ZM18.25 14.5C18.25 13.8125 18.8125 13.25 19.5 13.25C20.1875 13.25 20.75 13.8125 20.75 14.5C20.75 15.1875 20.1875 15.75 19.5 15.75C18.8125 15.75 18.25 15.1875 18.25 14.5ZM19.5 18.25C18.8125 18.25 18.25 18.8125 18.25 19.5C18.25 20.1875 18.8125 20.75 19.5 20.75C20.1875 20.75 20.75 20.1875 20.75 19.5C20.75 18.8125 20.1875 18.25 19.5 18.25ZM18.25 9.5C18.25 8.8125 18.8125 8.25 19.5 8.25C20.1875 8.25 20.75 8.8125 20.75 9.5C20.75 10.1875 20.1875 10.75 19.5 10.75C18.8125 10.75 18.25 10.1875 18.25 9.5ZM19.5 3.25C18.8125 3.25 18.25 3.8125 18.25 4.5C18.25 5.1875 18.8125 5.75 19.5 5.75C20.1875 5.75 20.75 5.1875 20.75 4.5C20.75 3.8125 20.1875 3.25 19.5 3.25ZM22.625 14.5C22.625 14.15 22.9 13.875 23.25 13.875C23.6 13.875 23.875 14.15 23.875 14.5C23.875 14.85 23.6 15.125 23.25 15.125C22.9 15.125 22.625 14.85 22.625 14.5ZM14.5 18.25C13.8125 18.25 13.25 18.8125 13.25 19.5C13.25 20.1875 13.8125 20.75 14.5 20.75C15.1875 20.75 15.75 20.1875 15.75 19.5C15.75 18.8125 15.1875 18.25 14.5 18.25ZM13.875 23.25C13.875 22.9 14.15 22.625 14.5 22.625C14.85 22.625 15.125 22.9 15.125 23.25C15.125 23.6 14.85 23.875 14.5 23.875C14.15 23.875 13.875 23.6 13.875 23.25ZM9.5 7.625C8.4625 7.625 7.625 8.4625 7.625 9.5C7.625 10.5375 8.4625 11.375 9.5 11.375C10.5375 11.375 11.375 10.5375 11.375 9.5C11.375 8.4625 10.5375 7.625 9.5 7.625ZM8.25 19.5C8.25 18.8125 8.8125 18.25 9.5 18.25C10.1875 18.25 10.75 18.8125 10.75 19.5C10.75 20.1875 10.1875 20.75 9.5 20.75C8.8125 20.75 8.25 20.1875 8.25 19.5ZM14.5 12.625C13.4625 12.625 12.625 13.4625 12.625 14.5C12.625 15.5375 13.4625 16.375 14.5 16.375C15.5375 16.375 16.375 15.5375 16.375 14.5C16.375 13.4625 15.5375 12.625 14.5 12.625ZM12.625 9.5C12.625 8.4625 13.4625 7.625 14.5 7.625C15.5375 7.625 16.375 8.4625 16.375 9.5C16.375 10.5375 15.5375 11.375 14.5 11.375C13.4625 11.375 12.625 10.5375 12.625 9.5Z" fill="black"/>
</svg>

<svg width="24" height="24" fill="none" xmlns="http://www.w3.org/2000/svg"><path fill-rule="evenodd" clip-rule="evenodd" d="M15.125.75c0 .35-.275.625-.625.625a.619.619 0 01-.625-.625c0-.35.275-.625.625-.625s.625.275.625.625zM4.5 3.25c-.688 0-1.25.563-1.25 1.25 0 .688.563 1.25 1.25 1.25.688 0 1.25-.563 1.25-1.25 0-.688-.563-1.25-1.25-1.25zm0 5c-.688 0-1.25.563-1.25 1.25 0 .688.563 1.25 1.25 1.25.688 0 1.25-.563 1.25-1.25 0-.688-.563-1.25-1.25-1.25zM3.25 14.5c0-.688.563-1.25 1.25-1.25.688 0 1.25.563 1.25 1.25 0 .688-.563 1.25-1.25 1.25-.688 0-1.25-.563-1.25-1.25zm0 5c0-.688.563-1.25 1.25-1.25.688 0 1.25.563 1.25 1.25 0 .688-.563 1.25-1.25 1.25-.688 0-1.25-.563-1.25-1.25zM.125 9.5c0-.35.275-.625.625-.625s.625.275.625.625-.275.625-.625.625A.619.619 0 01.125 9.5zm23.75 0c0 .35-.275.625-.625.625a.619.619 0 01-.625-.625c0-.35.275-.625.625-.625s.625.275.625.625zM14.5 5.75c.688 0 1.25-.563 1.25-1.25 0-.688-.563-1.25-1.25-1.25-.688 0-1.25.563-1.25 1.25 0 .688.563 1.25 1.25 1.25zM.75 13.875a.619.619 0 00-.625.625c0 .35.275.625.625.625s.625-.275.625-.625a.619.619 0 00-.625-.625zm8.125 9.375c0-.35.275-.625.625-.625s.625.275.625.625-.275.625-.625.625a.619.619 0 01-.625-.625zM9.5 1.375c.35 0 .625-.275.625-.625A.619.619 0 009.5.125a.619.619 0 00-.625.625c0 .35.275.625.625.625zM10.75 4.5c0 .688-.563 1.25-1.25 1.25-.688 0-1.25-.563-1.25-1.25 0-.688.563-1.25 1.25-1.25.688 0 1.25.563 1.25 1.25zM9.5 12.625A1.872 1.872 0 007.625 14.5c0 1.037.838 1.875 1.875 1.875a1.872 1.872 0 001.875-1.875A1.872 1.872 0 009.5 12.625zm8.75 1.875c0-.688.563-1.25 1.25-1.25.688 0 1.25.563 1.25 1.25 0 .688-.563 1.25-1.25 1.25-.688 0-1.25-.563-1.25-1.25zm1.25 3.75c-.688 0-1.25.563-1.25 1.25 0 .688.563 1.25 1.25 1.25.688 0 1.25-.563 1.25-1.25 0-.688-.563-1.25-1.25-1.25zM18.25 9.5c0-.688.563-1.25 1.25-1.25.688 0 1.25.563 1.25 1.25 0 .688-.563 1.25-1.25 1.25-.688 0-1.25-.563-1.25-1.25zm1.25-6.25c-.688 0-1.25.563-1.25 1.25 0 .688.563 1.25 1.25 1.25.688 0 1.25-.563 1.25-1.25 0-.688-.563-1.25-1.25-1.25zm3.125 11.25c0-.35.275-.625.625-.625s.625.275.625.625-.275.625-.625.625a.619.619 0 01-.625-.625zM14.5 18.25c-.688 0-1.25.563-1.25 1.25 0 .688.563 1.25 1.25 1.25.688 0 1.25-.563 1.25-1.25 0-.688-.563-1.25-1.25-1.25zm-.625 5c0-.35.275-.625.625-.625s.625.275.625.625-.275.625-.625.625a.619.619 0 01-.625-.625zM9.5 7.625A1.872 1.872 0 007.625 9.5c0 1.037.838 1.875 1.875 1.875A1.872 1.872 0 0011.375 9.5 1.872 1.872 0 009.5 7.625zM8.25 19.5c0-.688.563-1.25 1.25-1.25.688 0 1.25.563 1.25 1.25 0 .688-.563 1.25-1.25 1.25-.688 0-1.25-.563-1.25-1.25zm6.25-6.875a1.872 1.872 0 00-1.875 1.875c0 1.037.838 1.875 1.875 1.875a1.872 1.872 0 001.875-1.875 1.872 1.872 0 00-1.875-1.875zM12.625 9.5c0-1.037.838-1.875 1.875-1.875s1.875.838 1.875 1.875a1.872 1.872 0 01-1.875 1.875A1.872 1.872 0 0112.625 9.5z" fill="#000"/></svg>
